public/avatar/item0/51.svg

<svg xmlns:xlink="http://www.w3.org/1999/xlink" height="58.65" width="49.15" xmlns="http://www.w3.org/2000/svg"><use height="16.75" transform="translate(7.85 21.65)" width="31.95" xlink:href="#a"/><defs><g id="a"><path d="m12.2 17.8 1.75-7.25q1.15 4.4.9 5.55-.25 1.2-2.65 1.7" fill="#a0ba06" fill-rule="evenodd" transform="translate(16.25 -3.55)"/><path d="M12.55 17.85q3.25-.3 2.55-3l-1.5-4.8" fill="none" stroke="#000" stroke-linecap="round" stroke-linejoin="round" transform="translate(16.25 -3.55)"/><path d="M-12.75 17.8q-2.4-.5-2.65-1.7l.9-5.55 1.75 7.25" fill="#a0ba06" fill-rule="evenodd" transform="translate(16.25 -3.55)"/><path d="M-13.1 17.85q-3.2-.3-2.55-3l1.5-4.8" fill="none" stroke="#000" stroke-linecap="round" stroke-linejoin="round" transform="translate(16.25 -3.55)"/><path d="M9.35 8.6Q8.3 7.45 5.75 7.55l-6.45.4.25-2.85Q10.6 6.95 11.8 7.55q1.35.65.4 6.8-.5 3.4-3 4.75-1.65.95-9.25-.8v-2.25q6.75 1.4 8.4.4 1.35-.8 1.8-3.55.45-2.9-.8-4.3" fill-rule="evenodd" transform="translate(16.25 -3.55)"/><path d="m.65 7.95-6.45-.4q-2.6-.1-3.65 1.05-1.25 1.4-.75 4.3.45 2.75 1.75 3.55 1.65 1 8.4-.4v2.25q-7.55 1.75-9.25.8-2.3-1.25-3-4.75-.9-6.15.45-6.8L.4 5.1l.25 2.85" fill-rule="evenodd" transform="translate(16.25 -3.55)"/><path d="M-.2 12.9q1.2 0 3.5 4l-6.85-.6 1.25-1.7q1.35-1.7 2.1-1.7" fill-rule="evenodd" transform="translate(16.25 -3.55)"/><path d="M28.95 4.85Q26.9 1 16.15 1h-.1Q5.35 1 3.2 4.85q-1 1.85-.1 6.1.95 4.55 3.15 4.8l4.35-.4q3.25-.75 5.5-.75l5.45.75 4.35.4q2.2-.25 3.15-4.8.9-4.25-.1-6.1Z" fill="none" stroke="#3e4700" stroke-linecap="round" stroke-linejoin="round" stroke-width="2"/><path d="M1.55 14.55 5.3 16.1q1.65.55 2.7 1l-3.05.45-3.6-1.9.2-1.1m-3.6 0 .15 1.1-3.55 1.9-3.05-.45 2.7-1 3.75-1.55" fill-rule="evenodd" transform="translate(16.25 -3.55)"/><path d="m9.65 19.3-4.35-.4-5.45-.75q-2.25 0-5.5.75l-4.35.4q-2.2-.25-3.15-4.8-.9-4.25.1-6.1Q-10.9 4.55-.2 4.55h.1q10.75 0 12.8 3.85 1 1.85.1 6.1-.95 4.55-3.15 4.8M8.25 7.15q-3.6-1-7.85-1H-.75q-4.25 0-7.85 1-3.35.95-3.8 2-.4 1.05.75 4.95 1.1 3.85 1.9 4.15.45.15 4.15-1.55 3.9-1.8 5.2-1.7 1.55.1.45 0 1.65-.1 5.4 1.75 3.5 1.75 3.95 1.5.85-.4 1.95-4.25 1.1-3.8.7-4.85-.45-1.05-3.8-2" fill="#df0" fill-rule="evenodd" transform="translate(16.25 -3.55)"/><path d="M1.1 17.4q.15.7-1.2.75l-2.1-.05-3.85.75q-2.8.95-4.15.35-.65-.3 1.1-1.1l2.55-1.05q3.85-1.8 5.35-1.85l-.5-.1q.7-.1 1.7.75.95.8 1.1 1.55" fill="#b7d400" fill-rule="evenodd" transform="translate(16.25 -3.55)"/><path d="m.95 5.6 2.6.1 5.05.85q2.5.75 3.35 1.55.8.8.65 2.35-.15 2.1-.5 3.1M-.2 15.3l3.05.75q2.1.65 3.75 1.9" fill="none" stroke="#fefffa" stroke-linecap="round" stroke-linejoin="round" transform="translate(16.25 -3.55)"/><path d="M-13.3 12.2q-.45-3.35 1.5-3.75l-.5.5-.25.65q.1 2.25.75 4.35.85 2.8 1.6 3.85.3.5.9.55l.6.7-2-.2q-1.8-.7-2.6-6.65" fill="#b7d400" fill-rule="evenodd" transform="translate(16.25 -3.55)"/></g></defs></svg>

<?xml version="1.0" encoding="UTF-8" standalone="no"?>
<svg xmlns:xlink="http://www.w3.org/1999/xlink" height="58.65px" width="49.15px" xmlns="http://www.w3.org/2000/svg">
  <g transform="matrix(1.0, 0.0, 0.0, 1.0, 24.1, 18.1)">
    <use height="16.75" transform="matrix(1.0, 0.0, 0.0, 1.0, -16.25, 3.55)" width="31.95" xlink:href="#shape0"/>
  </g>
  <defs>
    <g id="shape0" transform="matrix(1.0, 0.0, 0.0, 1.0, 16.25, -3.55)">
      <path d="M12.2 17.8 L13.95 10.55 Q15.1 14.95 14.85 16.1 14.6 17.3 12.2 17.8" fill="#a0ba06" fill-rule="evenodd" stroke="none"/>
      <path d="M12.55 17.85 Q15.8 17.55 15.1 14.85 L13.6 10.05" fill="none" stroke="#000000" stroke-linecap="round" stroke-linejoin="round" stroke-width="1.0"/>
      <path d="M-12.75 17.8 Q-15.15 17.3 -15.4 16.1 L-14.5 10.55 -12.75 17.8" fill="#a0ba06" fill-rule="evenodd" stroke="none"/>
      <path d="M-13.1 17.85 Q-16.3 17.55 -15.65 14.85 L-14.15 10.05" fill="none" stroke="#000000" stroke-linecap="round" stroke-linejoin="round" stroke-width="1.0"/>
      <path d="M9.35 8.6 Q8.3 7.45 5.75 7.55 L-0.7 7.95 -0.45 5.1 Q10.6 6.95 11.8 7.55 13.15 8.2 12.2 14.35 11.7 17.75 9.2 19.1 7.55 20.05 -0.05 18.3 L-0.05 16.05 Q6.7 17.45 8.35 16.45 9.7 15.65 10.15 12.9 10.6 10.0 9.35 8.6" fill="#000000" fill-rule="evenodd" stroke="none"/>
      <path d="M0.65 7.95 L-5.8 7.55 Q-8.4 7.45 -9.45 8.6 -10.7 10.0 -10.2 12.9 -9.75 15.65 -8.45 16.45 -6.8 17.45 -0.05 16.05 L-0.05 18.3 Q-7.6 20.05 -9.3 19.1 -11.6 17.85 -12.3 14.35 -13.2 8.2 -11.85 7.55 L0.4 5.1 0.65 7.95" fill="#000000" fill-rule="evenodd" stroke="none"/>
      <path d="M-0.2 12.9 Q1.0 12.9 3.3 16.9 L-3.55 16.3 -2.3 14.6 Q-0.95 12.9 -0.2 12.9" fill="#000000" fill-rule="evenodd" stroke="none"/>
      <path d="M12.7 8.4 Q10.65 4.55 -0.1 4.55 L-0.2 4.55 Q-10.9 4.55 -13.05 8.4 -14.05 10.25 -13.15 14.5 -12.2 19.05 -10.0 19.3 L-5.65 18.9 Q-2.4 18.15 -0.15 18.15 L5.3 18.9 9.65 19.3 Q11.85 19.05 12.8 14.5 13.7 10.25 12.7 8.4 Z" fill="none" stroke="#3e4700" stroke-linecap="round" stroke-linejoin="round" stroke-width="2.0"/>
      <path d="M1.55 14.55 L5.3 16.1 Q6.95 16.65 8.0 17.1 L4.95 17.55 1.35 15.65 1.55 14.55" fill="#000000" fill-rule="evenodd" stroke="none"/>
      <path d="M-2.05 14.55 L-1.9 15.65 -5.45 17.55 -8.5 17.1 -5.8 16.1 -2.05 14.55" fill="#000000" fill-rule="evenodd" stroke="none"/>
      <path d="M9.65 19.3 L5.3 18.9 -0.15 18.15 Q-2.4 18.15 -5.65 18.9 L-10.0 19.3 Q-12.2 19.05 -13.15 14.5 -14.05 10.25 -13.05 8.4 -10.9 4.55 -0.2 4.55 L-0.1 4.55 Q10.65 4.55 12.7 8.4 13.7 10.25 12.8 14.5 11.85 19.05 9.65 19.3 M8.25 7.15 Q4.65 6.15 0.4 6.15 L-0.75 6.15 Q-5.0 6.15 -8.6 7.15 -11.95 8.1 -12.4 9.15 -12.8 10.2 -11.65 14.1 -10.55 17.95 -9.75 18.25 -9.3 18.4 -5.6 16.7 -1.7 14.9 -0.4 15.0 1.15 15.1 0.05 15.0 1.7 14.9 5.45 16.75 8.95 18.5 9.4 18.25 10.25 17.85 11.35 14.0 12.45 10.2 12.05 9.15 11.6 8.1 8.25 7.15" fill="#ddff00" fill-rule="evenodd" stroke="none"/>
      <path d="M1.1 17.4 Q1.25 18.1 -0.1 18.15 L-2.2 18.1 -6.05 18.85 Q-8.85 19.8 -10.2 19.2 -10.85 18.9 -9.1 18.1 L-6.55 17.05 Q-2.7 15.25 -1.2 15.2 L-1.7 15.1 Q-1.0 15.0 0.0 15.85 0.95 16.65 1.1 17.4" fill="#b7d400" fill-rule="evenodd" stroke="none"/>
      <path d="M0.95 5.6 L3.55 5.7 8.6 6.55 Q11.1 7.3 11.95 8.1 12.75 8.9 12.6 10.45 12.45 12.55 12.1 13.55" fill="none" stroke="#fefffa" stroke-linecap="round" stroke-linejoin="round" stroke-width="1.0"/>
      <path d="M-0.2 15.3 L2.85 16.05 Q4.95 16.7 6.6 17.95" fill="none" stroke="#fefffa" stroke-linecap="round" stroke-linejoin="round" stroke-width="1.0"/>
      <path d="M-13.3 12.2 Q-13.75 8.85 -11.8 8.45 L-12.3 8.95 -12.55 9.6 Q-12.45 11.85 -11.8 13.95 -10.95 16.75 -10.2 17.8 -9.9 18.3 -9.3 18.35 L-8.7 19.05 -10.7 18.85 Q-12.5 18.15 -13.3 12.2" fill="#b7d400" fill-rule="evenodd" stroke="none"/>
    </g>
  </defs>
</svg>
